flaticon/travel/water-craft.svg

<svg xmlns="http://www.w3.org/2000/svg" width="32" height="32" viewBox="0 0 24 24">
    <path d="M24 14.644531C24 13.289062 22.132812 11.433594 18.449219 9.125 17.96875 8.824219 17.433594 8.640625 16.882812 8.570312L15.585938 7.058594C15.507812 6.96875 15.394531 6.914062 15.277344 6.914062L12.835938 6.914062C12.832031 6.914062 12.824219 6.917969 12.820312 6.917969 12.808594 6.917969 12.796875 6.921875 12.785156 6.921875 12.746094 6.925781 12.710938 6.9375 12.675781 6.953125 12.667969 6.957031 12.660156 6.953125 12.652344 6.957031L11.027344 7.773438C10.824219 7.871094 10.746094 8.117188 10.84375 8.316406 10.917969 8.460938 11.058594 8.542969 11.210938 8.542969 11.269531 8.542969 11.332031 8.527344 11.390625 8.5L12.734375 7.828125 13.917969 9.207031 12.511719 9.769531C12.335938 9.839844 12.210938 10.011719 12.203125 10.199219 12.199219 10.273438 12.1875 10.394531 12.167969 10.542969L5.273438 8.960938C4.625 8.878906 3.988281 9.265625 3.707031 9.929688L2.992188 11.59375C2.84375 11.945312 2.8125 12.328125 2.894531 12.691406L1.53125 12.625C1.191406 12.601562.871094 12.792969.710938 13.089844.390625 13.707031-.101562 14.863281.25 15.722656.386719 16.054688.707031 16.269531 1.066406 16.269531L1.628906 16.269531 1.628906 16.441406C1.628906 17.46875 2.464844 18.304688 3.492188 18.304688L20.914062 18.304688C21.941406 18.304688 22.78125 17.46875 22.78125 16.441406L22.78125 16.214844C23.480469 16.03125 24 15.398438 24 14.644531zM12.433594 12.296875C12.4375 12.289062 12.441406 12.285156 12.445312 12.277344 12.535156 12.121094 12.613281 11.953125 12.679688 11.785156 12.699219 11.789062 12.714844 11.796875 12.738281 11.796875L20.855469 11.796875C21.210938 12.078125 21.53125 12.351562 21.808594 12.609375L12.230469 12.609375C12.300781 12.507812 12.371094 12.40625 12.433594 12.296875zM14.714844 8.890625L13.71875 7.730469 15.089844 7.730469 15.8125 8.570312 15.808594 8.570312C15.503906 8.613281 15.203125 8.695312 14.910156 8.8125zM13 10.453125L15.210938 9.566406C15.328125 9.519531 15.445312 9.484375 15.5625 9.449219 15.59375 9.441406 15.625 9.4375 15.65625 9.429688 15.742188 9.410156 15.828125 9.390625 15.917969 9.375 15.953125 9.371094 15.988281 9.371094 16.023438 9.367188 16.109375 9.355469 16.195312 9.347656 16.28125 9.34375 16.296875 9.34375 16.308594 9.347656 16.324219 9.347656 16.914062 9.335938 17.503906 9.492188 18.015625 9.8125 18.652344 10.214844 19.238281 10.605469 19.773438 10.980469L12.917969 10.980469C12.921875 10.953125 12.929688 10.925781 12.933594 10.898438L12.972656 10.726562 12.964844 10.722656C12.976562 10.632812 12.988281 10.542969 13 10.453125zM3.742188 11.914062L4.453125 10.25C4.59375 9.917969 4.871094 9.726562 5.128906 9.761719L11.972656 11.332031C11.792969 11.855469 11.488281 12.375 10.972656 12.695312 10.964844 12.703125 10.957031 12.707031 10.949219 12.710938 10.855469 12.765625 10.757812 12.816406 10.648438 12.859375 10.632812 12.863281 10.621094 12.871094 10.605469 12.875 10.496094 12.914062 10.378906 12.945312 10.257812 12.96875 10.242188 12.972656 10.230469 12.976562 10.21875 12.980469 10.078125 13.003906 9.929688 13.015625 9.773438 13.015625L3.761719 12.730469C3.640625 12.480469 3.628906 12.175781 3.742188 11.914062zM21.964844 16.441406C21.964844 17.019531 21.496094 17.492188 20.914062 17.492188L3.492188 17.492188C2.914062 17.492188 2.441406 17.019531 2.441406 16.441406L2.441406 16.269531 21.964844 16.269531zM22.371094 15.457031L1.066406 15.457031C1.039062 15.457031 1.015625 15.441406 1.003906 15.414062.839844 15.015625 1 14.289062 1.433594 13.46875 1.441406 13.449219 1.464844 13.4375 1.488281 13.4375 1.488281 13.4375 1.488281 13.4375 1.492188 13.4375L3.886719 13.550781 9.742188 13.832031 9.761719 13.832031C9.941406 13.832031 10.109375 13.8125 10.269531 13.792969 10.316406 13.785156 10.359375 13.777344 10.402344 13.769531 10.550781 13.742188 10.695312 13.707031 10.828125 13.660156 10.863281 13.648438 10.898438 13.632812 10.933594 13.621094 11.042969 13.578125 11.148438 13.53125 11.25 13.476562 11.296875 13.449219 11.34375 13.425781 11.390625 13.398438 11.433594 13.410156 11.472656 13.421875 11.515625 13.421875L22.5 13.421875C22.527344 13.421875 22.546875 13.414062 22.570312 13.410156 22.972656 13.894531 23.1875 14.316406 23.1875 14.644531 23.1875 15.09375 22.820312 15.457031 22.371094 15.457031zM21.964844 19.117188L2.441406 19.117188C2.214844 19.117188 2.035156 19.300781 2.035156 19.527344 2.035156 19.75 2.214844 19.933594 2.441406 19.933594L21.964844 19.933594C22.191406 19.933594 22.371094 19.75 22.371094 19.527344 22.371094 19.300781 22.191406 19.117188 21.964844 19.117188zM19.933594 21.152344L4.472656 21.152344C4.25 21.152344 4.066406 21.335938 4.066406 21.558594 4.066406 21.785156 4.25 21.964844 4.472656 21.964844L19.933594 21.964844C20.15625 21.964844 20.339844 21.785156 20.339844 21.558594 20.339844 21.335938 20.15625 21.152344 19.933594 21.152344zM17.898438 23.1875L6.507812 23.1875C6.285156 23.1875 6.101562 23.367188 6.101562 23.59375 6.101562 23.816406 6.285156 24 6.507812 24L17.898438 24C18.125 24 18.304688 23.816406 18.304688 23.59375 18.304688 23.367188 18.125 23.1875 17.898438 23.1875zM1.257812 4.066406C1.320312 4.4375 1.464844 4.777344 1.675781 5.074219L1.074219 5.675781C.914062 5.832031.914062 6.089844 1.074219 6.25 1.152344 6.328125 1.253906 6.367188 1.359375 6.367188 1.464844 6.367188 1.566406 6.328125 1.648438 6.25L2.25 5.648438C2.542969 5.859375 2.882812 6.003906 3.253906 6.066406L3.253906 6.914062C3.253906 7.140625 3.4375 7.320312 3.660156 7.320312 3.886719 7.320312 4.066406 7.140625 4.066406 6.914062L4.066406 6.066406C4.4375 6.003906 4.777344 5.859375 5.074219 5.648438L5.675781 6.25C5.753906 6.328125 5.859375 6.367188 5.960938 6.367188 6.066406 6.367188 6.171875 6.328125 6.25 6.25 6.410156 6.089844 6.410156 5.832031 6.25 5.675781L5.648438 5.074219C5.859375 4.777344 6.003906 4.4375 6.066406 4.066406L6.914062 4.066406C7.140625 4.066406 7.320312 3.886719 7.320312 3.660156 7.320312 3.4375 7.140625 3.253906 6.914062 3.253906L6.066406 3.253906C6.003906 2.882812 5.859375 2.542969 5.648438 2.25L6.25 1.648438C6.410156 1.488281 6.410156 1.230469 6.25 1.074219 6.089844.914062 5.832031.914062 5.675781 1.074219L5.074219 1.675781C4.777344 1.464844 4.4375 1.320312 4.066406 1.257812L4.066406.40625C4.066406.183594 3.886719 0 3.660156 0 3.4375 0 3.253906.183594 3.253906.40625L3.253906 1.257812C2.882812 1.320312 2.542969 1.464844 2.25 1.675781L1.648438 1.074219C1.488281.914062 1.230469.914062 1.074219 1.074219.914062 1.230469.914062 1.488281 1.074219 1.648438L1.675781 2.25C1.464844 2.542969 1.320312 2.882812 1.257812 3.253906L.40625 3.253906C.183594 3.253906 0 3.4375 0 3.660156 0 3.886719.183594 4.066406.40625 4.066406zM3.660156 2.035156C4.558594 2.035156 5.289062 2.761719 5.289062 3.660156 5.289062 4.558594 4.558594 5.289062 3.660156 5.289062 2.761719 5.289062 2.035156 4.558594 2.035156 3.660156 2.035156 2.761719 2.761719 2.035156 3.660156 2.035156zM3.660156 2.035156"/>
</svg>

<svg xmlns="http://www.w3.org/2000/svg" width="32" height="32" viewBox="0 0 24 24">
    <path d="M24 14.645c0-1.356-1.867-3.211-5.55-5.52a3.869 3.869 0 0 0-1.567-.555L15.586 7.06a.414.414 0 0 0-.309-.145h-2.441l-.016.004c-.011 0-.023.004-.035.004a.352.352 0 0 0-.11.031c-.007.004-.015 0-.023.004l-1.625.816a.404.404 0 0 0-.183.543.409.409 0 0 0 .547.184l1.343-.672 1.184 1.379-1.406.563a.494.494 0 0 0-.309.43 4.848 4.848 0 0 1-.035.343L5.273 8.961c-.648-.082-1.285.305-1.566.969l-.715 1.664c-.148.351-.18.734-.097 1.097l-1.364-.066a.876.876 0 0 0-.82.465c-.32.617-.813 1.773-.461 2.633a.88.88 0 0 0 .816.547h.563v.171c0 1.028.836 1.864 1.863 1.864h17.422a1.869 1.869 0 0 0 1.867-1.864v-.226A1.63 1.63 0 0 0 24 14.645zm-11.566-2.348l.011-.02c.09-.156.168-.324.235-.492.02.004.035.012.058.012h8.117c.356.281.676.555.954.812H12.23c.07-.101.141-.203.204-.312zm2.28-3.406l-.995-1.16h1.37l.723.84h-.003a3.877 3.877 0 0 0-.899.242zM13 10.453l2.21-.887a4.12 4.12 0 0 1 .352-.117c.032-.008.063-.011.094-.02.086-.019.172-.038.262-.054.035-.004.07-.004.105-.008.086-.012.172-.02.258-.023.016 0 .028.004.043.004.59-.012 1.18.144 1.692.464a44.36 44.36 0 0 1 1.757 1.168h-6.855c.004-.027.012-.054.016-.082l.039-.171-.008-.004.035-.27zm-9.258 1.461l.711-1.664c.14-.332.418-.523.676-.488l6.844 1.57c-.18.523-.485 1.043-1 1.363-.008.008-.016.012-.024.016a2.155 2.155 0 0 1-.3.148c-.016.004-.028.012-.044.016-.109.04-.226.07-.347.094a.492.492 0 0 0-.04.011c-.14.024-.288.036-.445.036l-6.011-.286a.992.992 0 0 1-.02-.816zm18.223 4.527c0 .579-.469 1.051-1.05 1.051H3.491c-.578 0-1.05-.472-1.05-1.05v-.172h19.523zm.406-.984H1.066a.067.067 0 0 1-.062-.043c-.164-.398-.004-1.125.43-1.945.007-.02.03-.031.054-.031h.004l2.395.113 5.855.281h.02c.18 0 .347-.02.508-.039l.132-.023c.149-.028.293-.063.426-.11.035-.012.07-.027.106-.039.109-.043.214-.09.316-.144.047-.028.094-.051.14-.079.044.012.083.024.126.024H22.5c.027 0 .047-.008.07-.012.403.485.617.906.617 1.235 0 .449-.367.812-.816.812zm0 0M21.965 19.117H2.44a.407.407 0 0 0-.406.41c0 .223.18.407.406.407h19.524a.406.406 0 0 0 .406-.407c0-.226-.18-.41-.406-.41zm0 0M19.934 21.152H4.473a.406.406 0 1 0 0 .813h15.46a.406.406 0 1 0 0-.813zm0 0M17.898 23.188H6.508a.406.406 0 1 0 0 .812h11.39a.406.406 0 1 0 0-.813zm0 0M1.258 4.066c.062.372.207.711.418 1.008l-.602.602a.403.403 0 0 0 .285.691c.106 0 .207-.039.29-.117l.601-.602c.293.211.633.356 1.004.418v.848a.406.406 0 1 0 .812 0v-.848c.372-.062.711-.207 1.008-.418l.602.602a.408.408 0 0 0 .574 0 .403.403 0 0 0 0-.574l-.602-.602c.211-.297.356-.636.418-1.008h.848a.406.406 0 1 0 0-.812h-.848a2.39 2.39 0 0 0-.418-1.004l.602-.602a.403.403 0 0 0 0-.574.403.403 0 0 0-.574 0l-.602.602a2.428 2.428 0 0 0-1.008-.418V.406a.406.406 0 1 0-.812 0v.852a2.39 2.39 0 0 0-1.004.418l-.602-.602a.403.403 0 0 0-.574 0 .403.403 0 0 0 0 .574l.602.602a2.39 2.39 0 0 0-.418 1.004H.406a.406.406 0 1 0 0 .812zm2.402-2.03a1.627 1.627 0 1 1 .004 3.253 1.627 1.627 0 0 1-.004-3.254zm0 0"/>
</svg>
